**kern	**kern	**dynam
*staff2	*staff1	*
*IPiano	*IPiano	*IPiano
*clefG2	*clefG2	*clefG2
*k[f#c#g#d#a#]	*k[f#c#g#d#a#]	*k[f#c#g#d#a#]
*M12/16	*M12/16	*M12/16
!Time Signature: 12/16 - 2/4	!Time Signature: 12/16 - 2/4	!Time Signature: 12/16 - 2/4
=1	=1	=1
!Tempo Marking: Tres modere	!Tempo Marking: Tres modere	!Tempo Marking: Tres modere
[8B'yy	(8B'	pp
8ryy	[8f#'	.
[8c#'yy	8c#'	.
8ryy	[8e'L	.
[8g#'yy	8g#'	.
8ryy	[8b'J)	.
=2	=2	=2
!Expression: quittez, en laissant vibrer	!Expression: quittez, en laissant vibrer	!
2B] 2c#] 2g#]	2e,] 2f#] 2b]	.
=3	=3	=3
*MM92	*MM92	*MM92
!Tempo Marking: Vif	!Tempo Marking: Vif	!Tempo Marking: Vif
*	*^	*
!	!	!Expression: leger et lointain	!
16r	16r	16ryy	pp
16r	16r	16ryy	.
16ff#'LL	16fff#'	16ryy	.
16ff#'	16fff#'LL	8gg# 8bb	.
16ee'	16eee'	.	.
16dd#'JJ	16ddd#'JJ	16ryy	.
8cc#'L	8ccc#'L	4ee 4gg#	.
(<16bK	(>16bbK	.	.
[8g#J)	[8gg#J)	.	.
.	.	16ryy	.
*	*v	*v	*
=4	=4	=4
8g#L]	8gg#L]	<
8g#JH 8cc# 8ee 8gg#h	8bbJH 8ccc# 8eee 8aaa#h	.
4r	4r	[
=5	=5	=5
!Tempo Marking: Tres Modere	!Tempo Marking: Tres Modere	!Tempo Marking: Tres Modere
(8B'yy	(8B'	pp
8ryy	8f#'	.
8c#'yy	8c#'	.
8ryy	8e'L	.
8g#'yy	8g#	.
8ryy	8b'J	.
=6	=6	=6
8B'L	8B'L	.
8F#'	8f#'	.
8G#'	8c#'	.
8B'	8e'	.
8c#')	8g#')	.
!Expression: quittez, en laissant vibrer	!Expression: quittez, en laissant vibrer	!
8e'J	8b'J	.
=7	=7	=7
4r	4r	.
!Tempo Marking: En serrant	!Tempo Marking: En serrant	!Tempo Marking: En serrant
8r	8r	.
8g#'H 8cc# 8ee 8gg#h	8bb'H 8ccc# 8eee 8aaa#h	p
=8	=8	=8
*^	*	*
8r	4B~ 4c# 4e 4f#	8r	.
8g#' 8cc# 8ee 8gg#	.	8bb' 8ccc# 8eee 8aaa#	.
8r	4B~ 4c# 4e 4f#	8r	.
8g#' 8cc# 8ee 8gg#	.	8bb' 8ccc# 8eee 8aaa#	.
=9	=9	=9	=9
8r	4B~ 4c##X 4e#X 4f#	8r	<
8g# 8cc##X 8ee#X 8gg#	.	8bb 8ccc##X 8eee#X 8aaa#	.
8r	4B~ 4c## 4e# 4f#	8r	.
8g# 8cc## 8ee# 8gg#	.	8bbZ 8ccc## 8eee# 8aaa#	.
*clefF4	*	*	*
=10	=10	=10	=10
*	*	*^	*
!Tempo Marking: Vif	!Tempo Marking: Vif	!Tempo Marking: Vif	!Tempo Marking: Vif	!Tempo Marking: Vif
8r	2BBB 2FF#	16r	16ryy	[
.	.	16r	16ryy	.
*	*	*8va	*	*
16ryy	.	16cccc#'	16ryy	f<
8D#~L 8F# 8c#	.	(>16cccc#LL	8ddd#L 8fff#	.
.	.	16bbb	.	.
16ryy	.	16aaa#JJ)	16ryy	.
*clefG2	*	*	*	*
8d#~ 8f# 8cc#	.	8ggg#'L	8ccc# 8ddd#	.
16ryy	8ryy	(>16fff#K	16ryy	.
[8dd#^^J [8ff# [8ccc#	.	[8ddd#~J)	[8bb~J	.
.	16ryy	.	.	.
*v	*v	*	*	*
=11	=11	=11	=11
16dd#] 16ff#] 16ccc#]	16ddd#]	16bb]	[
*	*X8va	*	*
16r	16r	16ryy	.
16r	(<16ff#'~^^KL 16ccc#	8ryy	>
8r	8dd#'J) 8gg#	.	.
.	.	4ryy	]
16ryy	(>16f#~^^LL 16cc#	.	>
24r	16d#JJ) 16g#	.	.
(>24f#LL	.	.	]p
.	16r	.	.
24d#	.	.	.
24f#	8r	8ryy	.
24d#	.	.	.
24f#JJ	.	.	.
*	*v	*v	*
=12	=12	=12
24r	8d#'^^	p
!	!	!Dynamic Expression: dim. molto leggiero
24f#LL	.	.
24d#	.	.
24f#	8r	.
24d#	.	.
24f#	.	.
24d#	4r	.
24f#	.	.
24d#	.	.
24f#	.	.
24d#	.	.
24f#JJ	.	.
=13	=13	=13
24d#LL	2r	.
24f#	.	.
24d#	.	.
24f#	.	.
24d#	.	.
24f#	.	.
24d#	.	.
24f#	.	.
24d#	.	.
24f#	.	.
24d#	.	.
24f#JJ)	.	.
=14	=14	=14
(>16d#LL	16r	pp
16f#	16r	.
!	!Expression: joyeux et leger	!
16d#	16gg#'	p
16f#	16gg#'LL	.
16d#	16aa#'	.
16f#	16gg#'JJ	.
16d#	8aa#'L	.
16f#	.	.
16d#	(>16bbK	.
16f#	[8.ccc#~J)	.
16d#	.	.
16f#JJ	.	.
=15	=15	=15
16d#LL	8ccc#L])	.
16f#	.	.
16d#	16bb'L	.
16f#	16ccc#'	.
16d#	16bb'	.
16f#	16aa#'JJ	.
16d#	8aa#'L	.
16f#	.	.
16d#	(>16gg#K	.
16f#	[8.aa#~J	.
16d#	.	.
16f#JJ)	.	.
=16	=16	=16
(>16d#LL	8aa#L]	.
16f#	.	.
16d#	16gg#K	.
16f#	8aa#	.
16d#	.	.
16f#	16gg#KJ	.
16d#	8ff#L	.
16f#	.	.
16d#	16gg#K	.
16f#	8ff#	.
16d#	.	.
16f#JJ	16dd#Jk	.
=17	=17	=17
*M6/16	*M6/16	*
16d#LL	8cc#L	.
16f#	.	.
16d#	16dd#K	.
16f#	8cc#	.
16d#	.	.
16f#JJ)	16a#Jk)	.
=18	=18	=18
*M12/16	*M12/16	*
(<16c#LL	(<8.g#L	<
16e	.	.
16c#	.	.
16d#	8a#')	.
16f#	.	.
16d#	16cc#Jk	.
16e	(>8.dd#L	[
16g#	.	.
16e	.	.
16d#	8cc#')	>
16f#	.	.
16d#JJ)	16a#Jk	.
=19	=19	=19
(>24c#LL	(>8.g#L	]p<
24e	.	.
24c#	.	.
24d#	.	.
24f#	.	.
.	16a#L	.
24d#	.	.
16e	16cc#	.
16g#	16dd#JJ	.
16e	16ff#'LL	[>
16d#	16dd#'	.
16f#	16cc#'	.
16d#JJ	16a#'JJ)	.
=20	=20	=20
16c#LL	(<8.g#L	]>
16e	.	.
16c#	.	.
16d#	8a#	.
16f#	.	.
16d#	16cc#Jk	.
16c#	8.g#L	.
16e	.	.
16c#	.	.
16B	16a#K	]
16d#	8g#J)	.
16BJJ)	.	.
=21	=21	=21
*clefF4	*	*
16r	(>16F#LL	]pp
16r	16f#	.
16F#'	16F#	.
16F#'LL	16f#	.
16E'	16F#	.
16D#'JJ	16f#	.
8C#~L	16F#	.
.	16f#	.
(<16BBK	16F#	>
8GG#'J)	16f#	]
.	16F#	.
(>16CC#	16f#JJ	>pp
=22	=22	=22
8FFF#')	16F#LL	]
.	16f#	.
8r	16F#	.
.	16f#	.
8ryy	16F#	.
.	16f#	.
*clefG2	*	*
16g#' 16cc#	16F#	pp
16r	16f#	.
4r	16F#	.
.	16f#	.
.	16F#	.
.	16f#JJ	.
*clefF4	*	*
=23	=23	=23
16r	16F#LL	.
16r	16f#	.
16F#'	16F#	.
16F#'LL	16f#	.
16E'	16F#	.
16D#'JJ	16f#	.
8C#~L	16F#	.
.	16f#	.
(<16BBK	16F#	>
8GG#'J)	16f#	]
.	16F#	.
(>16CC#	16f#JJ)	>pp
=24	=24	=24
8FFF#')	(>16F#LL	]
.	16f#	.
8r	16F#	.
.	16f#	.
8r	16F#	.
.	16f#	.
8r	16F#	.
.	16f#	.
16r	16F#	.
!Expression: expressif	!	!
(>8An~L	16f#	p
.	16F#	.
16B-XJk)	16f#JJ	.
=25	=25	=25
(>8cn'L	24F#LL	.
.	24f#	.
.	24F#	.
8An'	24f#	.
.	24F#	.
.	24f#	.
8c'	24F#	.
.	24f#	.
.	24F#	.
8e-X'J	24f#	.
.	24F#	.
.	24f#JJ	.
=26	=26	=26
8d-X'L	24F#LL	.
.	24f#	.
.	24F#	.
8cn'J)	24f#	.
.	24F#	.
.	24f#	.
8r	24F#	.
.	24f#	.
.	24F#	.
(>12d-~L	24f#	>
.	24F#	.
24cJk	24f#JJ	]]
=27	=27	=27
8.B'L)	16F#LL	]
.	16f#	.
.	16F#	.
(>8cn~	16f#	>
.	16F#	.
16BJk	16f#	.
8.A#Xi'L)	16F#	]
.	16f#	.
.	16F#	.
(8B~	16f#	>
.	16F#	.
16A#Jk	16f#JJ)	.
=28	=28	=28
*^	*	*
[4An)	8ryy	24r	]
.	.	24F#LL	.
.	.	24f#	.
.	[8.cn^^L [8.dn	24f#^^	<
.	.	24ff#	.
.	.	24ff#JJ	.
8A]	.	12fff#	[
.	16cJk] 16d]	.	.
.	.	24r	.
8ryy	(<12AL	24r	.
.	.	(>24F#LL	p
.	24B-XJk)	24f#JJ	.
*v	*v	*	*
=29	=29	=29
(>8cn'L	24F#LL	.
.	24f#	.
.	24F#	.
8An'	24f#	.
.	24F#	.
.	24f#	.
8c'	24F#	.
.	24f#	.
.	24F#	.
8d#X'J)	24f#	.
.	24F#	.
.	24f#JJ)	.
=30	=30	=30
24d#~	24r	.
24ryy	(>24d#LL	<
24ryy	24dd#JJ	.
24ryy	24dd#LL	.
24ryy	24ddd#	.
24ryy	24dd#JJ)	.
24d#~	24r	[
24ryy	(>24d#LL	mf
24ryy	24dd#JJ	.
24ryy	24dd#LL	.
24ryy	24ddd#	.
24ryy	24dd#JJ)	.
=31	=31	=31
24d#~	24r	f
24ryy	(>24d#LL	>
24ryy	24dd#JJ	.
24ryy	24dd#LL	.
24ryy	24ddd#	.
24ryy	24dd#JJ	.
24d#'	24r	]p
24ryy	24dd#LL	>
24ryy	24d#JJ)	]
!Tempo Marking: Cedez	!Tempo Marking: Cedez	!Tempo Marking: Cedez
(>12.DD#~ 12.D#	24r	.
.	(>24d#LL 24f#	>
.	24F#ZJJ	.
=32	=32	=32
!Tempo Marking: a Tempo	!Tempo Marking: a Tempo	!Tempo Marking: a Tempo
!Expression: un peu en dehors	!	!
!	!Expression: (Avec la liberte d'une chanson populaire)	!
8CC#'L 8C#	24eLL 24f#	]pp
.	24F#	.
.	24e 24f#	.
8FFF#' 8FF#	24F#	.
.	24e 24f#	.
.	24F#	.
8GGG#' 8GG#	24e 24f#	.
.	24F#	.
.	24e 24f#	.
8DD#' 8D#	24F#	.
.	24e 24f#	.
.	24F#JJ)	.
=33	=33	=33
8BBB'J) 8BB	24r	.
!Tempo Marking: Cedez	!Tempo Marking: Cedez	!Tempo Marking: Cedez
.	(>24F#LL	.
.	24d# 24f#	.
(<8FFF# 8FF#	24F#	<
.	24d# 24f#	.
.	24F#	.
[4GGG# [4GG#	24d# 24f#	[
.	24F#	.
.	24d# 24f#	.
.	24F#	.
.	24d# 24f#	.
.	24F#ZJJ	.
=34	=34	=34
!Tempo Marking: a Tempo	!Tempo Marking: a Tempo	!Tempo Marking: a Tempo
4GGG#]) 4GG#]	24eLL 24f#	.
.	24F#	.
.	24e 24f#	.
.	24F#	.
.	24e 24f#	.
.	24F#	.
(<8AAA#L 8AA#	24e 24f#	<
.	24F#	.
.	24e 24f#	.
8DD#J 8D#	24F#	.
.	24e 24f#	.
.	24F#JJ	.
=35	=35	=35
8BBBL 8BB	24d#LL 24f#	.
.	24F#	.
.	24d# 24f#	.
[8GG#J [8G#	24F#	[
.	24d# 24f#	.
.	24F#	.
8GG#]) 8G#]	24d# 24f#	>
.	24F#	.
.	24d# 24f#	.
(>8DD#' 8D#	24F#	]pp
.	24d# 24f#	.
.	24F#JJ	.
=36	=36	=36
8CC#'L 8C#	24r	.
.	24F#LL	.
.	24e 24f#	.
8FFF#' 8FF#	24F#	.
.	24e 24f#	.
.	24F#	.
8GGG#' 8GG#	24e 24f#	.
.	24F#	.
.	24e 24f#	.
8DD#'J 8D#	24F#	.
.	24e 24f#	.
.	24F#JJ	.
=37	=37	=37
8BBB'L) 8BB	24r	.
!	!LO:TX:a:i:t=Cedez	!
.	24F#LL	.
.	24d# 24f#	.
(>8FFF#J 8FF#	24F#	<
.	24d# 24f#	.
.	24F#	.
[4GGG# [4GG#	24d# 24f#	[
.	24F#	.
.	24d# 24f#	.
.	24F#	.
.	24d# 24f#	.
.	24F#ZJJ	.
=38	=38	=38
!Tempo Marking: a Tempo	!Tempo Marking: a Tempo	!Tempo Marking: a Tempo
4GGG#] 4GG#]	24eLL 24f#	.
.	24F#	.
.	24e 24f#	.
.	24F#	.
.	24e 24f#	.
.	24F#	.
8AAA#L 8AA#	24e 24f#	<
.	24F#	.
.	24e 24f#	.
8DD#J 8D#	24F#	.
.	24e 24f#	.
.	24F#JJ)	.
=39	=39	=39
*	*^	*
8BBB') 8BB	24r	8ryy	[
.	(24F#LL	.	<
.	24d# 24f#	.	.
8r	24f#	8ryy	.
.	24dd# 24ff#	.	.
.	24f#JJ	.	[
4r	24F#LL	8ryy	.
.	24f#	.	<
.	24ff#JJ)	.	.
.	24dd#LL	8dd#~ 8ddd#	.
.	24ff#	.	.
.	24dd#JJ	.	.
=40	=40	=40	=40
*^	*	*	*
*	*^	*	*	*
4r	4ryy	2BBB\	8cc#~L 8ccc#	24cc#LL	[f
.	.	.	.	24ff#	.
.	.	.	.	24eeJJ	.
.	.	.	8f#~ 8ff#	24f#LL	.
.	.	.	.	24ee	.
.	.	.	.	24cc#JJ	.
4c# 4e	(8F#L	.	8g#~ 8gg#	24g#LL	.
.	.	.	.	24ee	.
.	.	.	.	24cc#JJ	.
.	8G#J	.	8dd#~J 8ddd#	24dd#LL	.
.	.	.	.	24gg#	.
.	.	.	.	24eeJJ	.
*	*v	*v	*	*	*
=41	=41	=41	=41	=41
8d# 8f#	<8A#L	8b~L 8bb	24bLL	.
.	.	.	24ff#	.
.	.	.	24dd#JJ	.
8ryy	8B	8f#~J 8ff#	24f#LL	.
.	.	.	24dd#	.
.	.	.	24bJJ	.
4ryy	8c#	4g#~ 4gg#	24g#LL	.
.	.	.	24dd#	.
.	.	.	[24bJJ	.
.	8d#J)	.	24bLL]	.
.	.	.	24dd#	.
.	.	.	24bJJ	.
=42	=42	=42	=42	=42
4FFF# 4FF#	4ryy	(<24bLL	4ryy	f<
.	.	24ff#	.	.
.	.	24cc#	.	.
.	.	24ee	.	.
.	.	24gg#	.	.
.	.	24bbJJ)	.	.
8g#L	[4F# 4c# 4e	24a#LL	(8a#L 8aa#	[
.	.	24gg#	.	.
.	.	24eeJJ	.	.
8a#J	.	24dd#LL	8dd#J 8ddd#	.
.	.	24gg#	.	.
.	.	24eeJJ	.	.
=43	=43	=43	=43	=43
!Tempo Marking: Cedez	!Tempo Marking: Cedez	!Tempo Marking: Cedez	!Tempo Marking: Cedez	!Tempo Marking: Cedez
2r	(<8F#L] 8B 8d# 8f#	<8bL 8dd# 8ff# 8bb	4ryy	ff<
*clefG2	*	*	*	*
.	8f#J) 8b 8dd# 8ff#	8gg#ZJ) 8bb 8ddd# 8ggg#	.	.
*clefF4	*	*	*	*
!Tempo Marking: a Tempo	!Tempo Marking: a Tempo	!Tempo Marking: a Tempo	!Tempo Marking: a Tempo	!Tempo Marking: a Tempo
.	4ryy	24B'^^LL	16B'^^	[f
.	.	24f#	.	.
.	.	.	16ryy	.
.	.	24c#	.	.
!	!	!	!Expression: m.g.	!
.	.	24e	(<8d#~	.
.	.	24g#	.	.
.	.	24bJJ	.	.
*v	*v	*	*	*
=44	=44	=44	=44
4r	24c#LL	8c#L	.
.	24f#	.	.
.	24e	.	.
.	24F#	8F#	.
.	24f#	.	.
.	24e	.	.
[4FF#~	24G#	8G#	.
.	24f#	.	.
.	24e	.	.
.	24d#	8d#J)	.
!	!	!	!Dynamic Expression: dim.
!Tempo Marking: Rit.	!Tempo Marking: Rit.	!Tempo Marking: Rit.	!Tempo Marking: Rit.
.	24f#	.	.
.	24eJJ	.	.
=45	=45	=45	=45
*^	*	*	*
8FF#]	2BBB	24BLL	(<8BL	.
.	.	24f#	.	.
.	.	24d#	.	.
(>4FF#'	.	24A#	12A#	.
.	.	24f#	.	.
.	.	24d#	24BJk	.
.	.	24A#	8A#L	.
.	.	24f#	.	.
.	.	24d#	.	.
[8FF#~)	.	24c#	12c#	.
.	.	24f#	.	.
.	.	24d#JJ	24A#Jk)	.
=46	=46	=46	=46	=46
8FF#]	2BBB	24AnLL	(<[4A	.
.	.	24f#	.	.
.	.	[24d#	.	.
(>4FF#'	.	24d#]	.	.
.	.	24f#	.	.
.	.	[24d#	.	.
.	.	24d#]	8AL]	.
.	.	24f#	.	.
.	.	24d#	.	.
[8FF#~)	.	24G#	12G#	.
.	.	24f#	.	.
.	.	24d#JJ	24AJk)	.
=47	=47	=47	=47	=47
8FF#]	2BBB	24A#XLL	(<4A#	<
.	.	24f#	.	.
.	.	[24e	.	.
(>4FF#'	.	24e]	.	.
.	.	24f#	.	.
.	.	[24e	.	.
!	!	!	!Expression: m.g.	!
.	.	24e]	[4a#X)	[>
.	.	24f#	.	.
.	.	[24e	.	.
[8FF#~)	.	24e]	.	.
.	.	24f#	.	.
.	.	[24eJJ	.	.
=48	=48	=48	=48	=48
8FF#]	2BBB	24eLL]	(<4a#]	]
.	.	24f#	.	.
.	.	[24e	.	.
(>4FF#'	.	24e]	.	.
.	.	24f#	.	.
.	.	24e	.	.
.	.	24A#	4A#)	.
.	.	24f#	.	.
.	.	[24e	.	.
8FF#~)	.	24e]	.	.
.	.	24f#	.	.
.	.	24eJJ	.	.
=49||	=49||	=49||	=49||	=49||
*	*^	*	*	*
!Tempo Marking: Modere et expressif	!Tempo Marking: Modere et expressif	!Tempo Marking: Modere et expressif	!Tempo Marking: Modere et expressif	!Tempo Marking: Modere et expressif	!Tempo Marking: Modere et expressif
4F#	6FF#'	(<2BBB\	4f#~	(<12d#'L	p
.	.	.	.	12d#'	.
.	6FF#'	.	.	12d#'J	.
4G#	.	.	4f#~	12d#'L	<
.	6FF#'	.	.	12d#'	.
.	.	.	.	12d#'J	.
=50	=50	=50	=50	=50	=50
.	.	.	(<8qe/	.	[>
4A#	6FF#'	4CC#\	4f#~)	12e'L	.
.	.	.	.	12e'	.
.	6FF#'	.	.	12e'J	]
4G#	.	4FFF#\)	4f#~	12e'L	.
.	6FF#'	.	.	12d#'	.
.	.	.	.	12c#'J)	.
=51	=51	=51	=51	=51	=51
.	.	.	(<8qc##X/	.	.
4F#	2FF#	(<4BBB\	2f#)	12d#'L	.
.	.	.	.	12d#'	.
.	.	.	.	12d#'J	.
8G#L	.	4BBB#X\	.	(<12d#L	<
.	.	.	.	12g#)	.
8AnJ	.	.	.	.	.
.	.	.	.	12d#J	.
=52	=52	=52	=52	=52	=52
.	.	.	(<8qd#/	.	]
4A#X	2FF#	4CC#\	4f#~)	12eL	.
.	.	.	.	12e	.
.	.	.	.	12eJ	.
4G#	.	4FFF#\)	4f#~	12eL	>
.	.	.	.	12d#	.
.	.	.	.	12c#J	.
=53	=53	=53	=53	=53	=53
8F#L	4FF#	(<[4.BBB\	(>8d#'L 8f#	8c#L	]<
8F#	.	.	8d#' 8f#	8B	.
8F#J	[8FF#	.	8d#'J 8f#	8A#J	.
8F#L	8FF#L]	8BBB\L]	8d#~L 8f#	8G#L	.
8F#J	[8FF#J	8CC#\J	8d#~J 8f#	8BJ	.
=54	=54	=54	=54	=54	=54
2.F#	8FF#'L]	2.DD#\)	2.d#~) 2.f#	2.A#	[
!	!Expression: un peu marque	!	!	!	!
.	(>8FF#'	.	.	.	<
.	8FF#'J	.	.	.	.
.	8FF#'L	.	.	.	.
.	8GG#'	.	.	.	.
.	8AA#'J)	.	.	.	.
*	*	*	*v	*v	*
=55	=55	=55	=55	=55
!Tempo Marking: Plus modere	!Tempo Marking: Plus modere	!Tempo Marking: Plus modere	!Tempo Marking: Plus modere	!Tempo Marking: Plus modere
(<8qAA#/	.	.	.	[pp
8FF#L) 8E	4ryy	(4.CC#\	(>8B'L 8c# 8f#	.
8F#	.	.	8B' 8c# 8f#	.
8G#J	[8FF#	.	8B'J 8c# 8f#	.
8A#L	8FF#L]	4FFF#\	8B~L 8c# 8f#	.
8G#J	[8FF#J	.	8B~J) 8c# 8f#	.
=56	=56	=56	=56	=56
8F#L	4FF#]	2.BBB\)	(8B'L 8d# 8f#	.
8F#	.	.	8B' 8d# 8f#	.
8G#J	4FF#	.	8B'J 8d# 8f#	.
8F#L	.	.	8B'L 8d# 8f#	.
8E	4FF#	.	8B' 8d# 8f#	.
8D#J	.	.	8B'J) 8d# 8f#	.
*	*v	*v	*	*
=57	=57	=57	=57
!Tempo Marking: Rubato	!Tempo Marking: Rubato	!Tempo Marking: Rubato	!Tempo Marking: Rubato
8C#'L 8A#	(<8CC#'L 8FF# 8F#	(<8f#'L	.
8D#' 8A#	8DD#' 8FF# 8F#	8f#'	>
8E'J 8A#	8EE'J 8FF# 8F#	8f#'J	.
8D#~L 8A#	8DD#~L 8FF# 8F#	8f#~L	.
8C#~J 8A#	8CC#~J 8FF# 8F#	8f#~J	.
*	*^	*	*
=54	=54	=54	=54	=54
2.D# 2.F# 2B.	8FF#'L]	2.BBB\)	2.f#~)	[
!	!Expression: un peu marque	!	!	!
.	(>8FF#'	.	.	<
.	8FF#'J	.	.	.
.	8FF#'L	.	.	.
.	8GG#'	.	.	.
.	8AA#'J)	.	.	.
*	*	*	*	*
=55	=55	=55	=55	=55
(<8qAA#/	.	.	.	[pp
8FF#L) 8E	4ryy	(4.CC#\	(>8B'L 8c# 8f#	.
8F#	.	.	8B' 8c# 8f#	.
8G#J	[8FF#	.	8B'J 8c# 8f#	.
8A#L	8FF#L]	4FFF#\	8B~L 8c# 8f#	.
8G#J	[8FF#J	.	8B~J 8c# 8f#	.
=56	=56	=56	=56	=56
8F#L	4FF#]	2.BBB\)	8B'L 8d# 8f#	.
8F#	.	.	8B' 8d# 8f#	.
8G#J	4FF#	.	8B'J 8d# 8f#	.
8F#L	.	.	8B'L 8d# 8f#	.
8E	4FF#	.	8B' 8d# 8f#	.
8D#J	.	.	8B'J) 8d# 8f#	.
*	*v	*v	*	*
=57	=57	=57	=57
8C#'L 8A#	(<8CC#'L 8FF# 8F#	(<8f#'L	.
8D#' 8A#	8DD#' 8FF# 8F#	8f#'	>
8E'J 8A#	8EE'J 8FF# 8F#	8f#'J	.
8D#~L 8A#	8DD#~L 8FF# 8F#	8f#~L	.
8C#~J 8A#	8CC#~J 8FF# 8F#	8f#~J	.
=58	=58	=58	=58
*	*^	*	*
2.D# 2.F# 2.B	(4FF#')	2.BBB\ 2.BB	2.f#~)	]
.	4FF#'	.	.	.
.	4FF#')	.	.	.
*	*v	*v	*	*
=59	=59	=59	=59
!Tempo Marking: Retenu	!Tempo Marking: Retenu	!Tempo Marking: Retenu	!Tempo Marking: Retenu
2.E 2.An	2.AAAn 2.EE 2.AAn 2.C#	(<8B'L	.
.	.	8f#'	>
.	.	8c#'J	.
.	.	8e'L	.
.	.	8g#'	.
.	.	8b'J)	.
=60	=60	=60	=60
*	*^	*	*
2.D# 2.F#	(>4FF#'	2.BBB\ 2.BB	2.B~Z	]pp
.	4FF#'	.	.	.
.	4FF#')	.	.	.
*v	*v	*v	*	*
=61	=61	=61
!Tempo Marking: Presque lent	!Tempo Marking: Presque lent	!Tempo Marking: Presque lent
*^	*	*
2.E 2.An	2.AAAn 2.EE 2.AAn 2.C#	(<8B'L	>
.	.	8f#'	.
.	.	8c#'J	.
.	.	8e'L	.
.	.	8g#'	.
.	.	[8b';ZJ)	]
=62	=62	=62	=62
!Tempo Marking: a Tempo (Vif)	!Tempo Marking: a Tempo (Vif)	!Tempo Marking: a Tempo (Vif)	!Tempo Marking: a Tempo (Vif)
4r	2GGG#	(>24bLL]	p
!	!	!	!Dynamic Expression: cresc. molto
.	.	24ff#	.
.	.	24cc#	.
.	.	24ee	.
.	.	24gg#	.
.	.	24bbJJ)	.
8GG#'L 8D#	.	(>24bLL	.
.	.	24ff#	.
.	.	24cc#	.
8C#'J 8G#	.	24ee	.
.	.	24gg#	.
.	.	24bbJJ)	.
*v	*v	*	*
=63	=63	=63
8G#'L 8d#	(>24bLL	.
.	24ff#	.
.	24cc#	.
8c#'J 8g#	24ee	.
.	24gg#	.
.	24bbJJ)	.
*clefG2	*	*
8g#'L 8dd#	(>24bLL	.
.	24ff#	.
.	24cc#	.
8cc#'J 8gg#	24ee	.
.	24gg#	.
.	24bbJJ)	.
=64	=64	=64
*	*^	*
[2G# 2B 2d# 2f# 2b	16r	[2dd# 2ff# 2bb 2ddd#	f
.	16r	.	.
*	*8va	*	*
.	16ggg#'	.	.
.	16ggg#'LL	.	.
.	16aaa#'	.	.
.	16ggg#'JJ	.	.
.	8aaa#'L	.	.
8ryy	16bbbK	8r	.
.	[8cccc#J	.	.
16ryy	.	16r	.
=65	=65	=65	=65
2G# 2B 2d# 2f#yy 2b	8cccc#L]	2dd# 2ff# 2bb 2ddd#yy	.
.	16bbb'L	.	.
.	16cccc#'	.	.
.	16bbb'	.	.
.	16aaa#'JJ	.	.
.	8aaa#'L	.	.
4ryy	(>16ggg#K	4ryy	.
.	[8.aaa#J	.	.
=66	=66	=66	=66
4.G# 2B 2d# 2f#yy	8aaa#L]	4.dd# 2ff# 2bb 2ddd#yy	.
.	16ggg#K	.	.
.	8aaa#	.	.
.	.	.	.
.	16ggg#Jk	.	.
=67	=67	=67	=67
4.G# 4.B 4.d# 4.f#yy	8fff#L	4.dd# 4.ff# 4.bb 4.ddd#yy	.
.	16ggg#K	.	.
.	8fff#	.	.
.	16ddd#Jk)	.	.
*	*v	*v	*
*	*X8va	*
*	*^	*
4.G#] 4.B 4.d# 4.e#X 4.b	(>8ccc#L	4dd#] 4gg#	>
.	16ddd#K	.	.
.	8ccc#	.	.
.	.	8ryy	.
.	16aa#Jk)	.	.
=68	=68	=68	=68
4.G# 4.B 4.d# 4.f# 4.b	(>8gg#L	4dd#	.
.	16gg#K	.	.
.	8ff#	.	.
.	.	8ryy	.
.	16dd#Jk)	.	.
4.G# 4.B 4.e#X	(>8cc#L	4d# 4g#	.
.	16dd#K	.	.
.	8cc#	.	.
.	.	8ryy	.
.	16a#Jk)	.	.
*	*v	*v	*
*clefF4	*	*
=69	=69	=69
8dn'~L	(<24BLL	]f
.	24f#	.
.	24c#	.
8Dn'^^J 8E	24e	.
.	24g#	.
.	24bJJ)	.
[4EEE	(<24BLL	.
.	24f#	.
.	24c#	.
.	24e	.
.	24g#	.
.	24bJJ)	.
=70	=70	=70
8EEE]	(<24BLL	.
.	24f#	.
.	24c#	.
8r	24e	.
.	24g#	.
.	24bJJ)	.
*clefG2	*	*
(<24BLL	24r	.
24f#	24r	.
24c#	24gg#'	.
24e	24gg#'LL	.
24g#	24aa#'	.
24bJJ)	24gg#'JJ	.
=71	=71	=71
(<16dnLL	8aa#'L	.
16e	.	.
16d	(>16bbK	.
16e	[8.ccc#J	.
16d	.	.
16eJJ)	.	.
(<16BLL	8ccc#L])	.
16f#	.	.
16c#	16bb'L	.
16e	(>16ccc#'	.
16g#	16bb'	.
16bJJ)	16aa#'JJ)	.
=72	=72	=72
(<16dnLL	8aa#L	.
16e	.	.
16d	(>16gg#K	.
16e	[8.aa#J	.
16d	.	.
16eJJ)	.	.
(<16BLL	8aa#L]	.
16f#	.	.
16c#	16gg#K	.
16e	8aa#	.
16g#	.	.
16bJJ)	16gg#Jk	.
=73	=73	=73
(>16dnLL	8ff#L	.
16c#	.	.
16d	16gg#K	.
16d#X	8ff#	.
16c##X	.	.
16d#JJ	16dd#Jk	.
16eLL	8cc#L	.
16d#	.	.
16e	16dd#K	.
16e#X	8cc#	.
16d##X	.	.
16e#JJ	16bJk)	.
=74	=74	=74
!	!	!Dynamic Expression: cresc. molto
*^	*	*
16f#LL	4f#~	(<8.g#L	.
16en	.	.	.
16f#	.	.	.
16e	.	8a#')	.
16f#	8ryy	.	.
16e	.	16cc#Jk	.
16gn	4g~	(>8.dd#L	.
16e	.	.	.
16g	.	.	.
16e	.	8cc#')	.
16g	8ryy	.	.
16eJJ)	.	16a#Jk	.
=75	=75	=75	=75
(>16f#LL	4f#~	(>8.g#L	.
16e	.	.	.
16f#	.	.	.
16e	.	16a#L	.
16f#	8ryy	16cc#	.
16e)	.	16dd#JJ)	.
(>16gn	4g~	(>32%3ff#'L	.
16e	.	.	.
.	.	32%3dd#'	.
16g	.	.	.
16e	.	32%3cc#'	.
16g	8ryy	.	.
.	.	32%3a#'J)	.
16eJJ)	.	.	.
=76	=76	=76	=76
*	*	*^	*
(16f#LL	4f#~	8.g#L	4.ryy	.
16e	.	.	.	.
16f#	.	.	.	.
16e	.	(<8a#	.	.
16f#	8ryy	.	.	.
16e)	.	16cc#Jk)	.	.
!Tempo Marking: Cedez	!Tempo Marking: Cedez	!Tempo Marking: Cedez	!Tempo Marking: Cedez	!Tempo Marking: Cedez
(16gn	4g~	8.ff#L	4ddd#~^	f<
16e	.	.	.	.
16g	.	.	.	.
16e	.	(<8cc#	.	.
16g	8ryy	.	8ryy	.
16eJJ)	.	16a#ZJk)	.	.
=77	=77	=77	=77	=77
!Tempo Marking: a Tempo	!Tempo Marking: a Tempo	!Tempo Marking: a Tempo	!Tempo Marking: a Tempo	!Tempo Marking: a Tempo
(>8BL 8b	4c# 4e 4f#	8cc#~^L 8ccc#	24cc#LL	[ff
.	.	.	24ff#	.
.	.	.	24eeJJ	.
8A# 8a#	.	8f#~^ 8ff#	24f#LL	.
.	.	.	24ee	.
.	.	.	24cc#JJ	.
8G# 8g#	4A# 4e	8g#~^ 8gg#	24g#LL	.
.	.	.	24ee	.
.	.	.	24cc#JJ	.
8F#J 8f#	.	8dd#~^J 8ddd#	24dd#LL	.
.	.	.	24aa#	.
.	.	.	24ff#JJ	.
*clefF4	*	*	*	*
=78	=78	=78	=78	=78
8EL 8e	4F# 4B	8b~^L 8bb	24bLL	.
.	.	.	24ff#	.
.	.	.	24dd#JJ	.
8D# 8d#	.	8f#~^J 8ff#	24f#LL	.
.	.	.	24dd#	.
.	.	.	24bJJ	.
8C# 8c#	4D# 4F#	[4g#^ [4gg#	24g#LL	.
.	.	.	24dd#	.
.	.	.	[24bJJ	.
8BBJ) 8B	.	.	24bLL]	.
.	.	.	24dd#	.
.	.	.	24bJJ	.
=79	=79	=79	=79	=79
4FFF# 4FF#	4ryy	4g#] 4gg#]	(<24BLL	.
.	.	.	24f#	.
.	.	.	24c#	.
.	.	.	24e	.
.	.	.	24g#	.
.	.	.	24bJJ)	.
!Tempo Marking: Cedez	!Tempo Marking: Cedez	!Tempo Marking: Cedez	!Tempo Marking: Cedez	!Tempo Marking: Cedez
(<4F# 4c# 4e	8g#L	(>8a#L 8aa#	4ee 4gg#	.
.	8a#J	8dd#J 8ddd#	.	.
*v	*v	*	*	*
=80	=80	=80	=80
(>8F#~^L 8B 8d# 8f#	4ryy	(<8b~^L 8dd# 8ff# 8bb	.
*clefG2	*	*	*
8f#J) 8b 8dd# 8ff#	.	8gg#ZJ)) 8bb 8ddd# 8ggg#	.
!Tempo Marking: a Tempo	!Tempo Marking: a Tempo	!Tempo Marking: a Tempo	!Tempo Marking: a Tempo
4r	24BLL	16B'	.
.	24f#	.	.
.	.	16ryy	.
.	24c#	.	.
!	!Expression: m.g.	!	!
.	24e	(<8d#~	.
.	24g#	.	.
.	24bJJ	.	.
*clefF4	*	*	*
=81	=81	=81	=81
!	!	!	!Dynamic Expression: dim.
*^	*	*	*
8FF#	2BBB	24c#LL	8c#L	.
.	.	24f#	.	.
.	.	24e	.	.
!Tempo Marking: Cedez	!Tempo Marking: Cedez	!Tempo Marking: Cedez	!Tempo Marking: Cedez	!Tempo Marking: Cedez
4FF#~	.	24F#	8F#	.
.	.	24f#	.	.
.	.	24eJJ	.	.
.	.	24G#LL	8G#	.
.	.	24f#	.	.
.	.	24e	.	.
8FF#'	.	24d#	8d#J)	.
.	.	24f#	.	.
.	.	24eZJJ	.	.
*v	*v	*	*	*
*	*v	*v	*
*	*clefF4	*
=82	=82	=82
!Tempo Marking: a Tempo	!Tempo Marking: a Tempo	!Tempo Marking: a Tempo
(>4AAAn~ 4AAn 4BB	24r	p
.	(24F#LL	.
.	24C#	.
.	24E	.
.	24G#	.
.	24BJJ)	.
*	*clefG2	*
>4An~ 4B	24r	.
.	(24f#LL	.
.	24c#	.
.	24e	<
.	24g#	.
.	24bJJ)	.
=83	=83	=83
*clefG2	*	*
4an~ 4b	16r	.
.	16r	.
.	16f#'	.
.	(<16f#LL	.
8ryy	16e	.
.	16d#JJ	.
*clefF4	*	*
4An~) 4B	8c#'L)	[
.	(<16BJk	.
.	16G#)	.
8ryy	16r	.
*	*clefF4	*
.	(16C#^^ 16F#	f
=84	=84	=84
(>4AAAn~ 4AAn 4BB	24r	p
.	(24F#LL)	.
.	24C#	.
.	24E	.
.	24G#	.
.	24BJJ)	.
*	*clefG2	*
>4An~ 4B	24r	.
.	24f#LL	.
.	24c#	.
.	24e	.
.	24g#	.
.	24bJJ)	.
*clefG2	*	*
=85	=85	=85
4an~ 4b	16r	.
.	16r	.
.	16f#'	.
.	(<16f#LL	.
8ryy	16e	.
.	16d#JJ)	.
*clefF4	*	*
4An~) 4B	8c#'L	.
.	(<16BJk	.
.	16G#)	.
8ryy	16r	.
*	*clefF4	*
.	16C#^^ 16F#	f
=86	=86	=86
(>4AAAn~ 4AAn 4BB	24r	p<
.	(24F#LL	.
.	24C#	.
.	24E	.
.	24G#	.
.	24BJJ)	[
*	*clefG2	*
>4An~ 4B	24r	.
.	(24f#LL	<
.	24c#	.
.	24e	.
.	24g#	.
.	24bJJ)	[
*clefG2	*	*
=87	=87	=87
(>4an~ 4b	24r	.
.	(24ff#LL	<
.	24cc#	.
.	24ee	.
.	24gg#	.
.	24bbJJ)	[
>4aan~ 4bb)	24r	.
*	*8va	*
.	(24fff#LL	<
.	24ccc#	.
.	24eee	.
.	24ggg#	.
.	24bbbJJ)	.
=88	=88	=88
(>16bb~LL	(24bbLL	[f<
.	24fff#	.
16ff#	.	.
.	24ccc#	.
16gg#	24eee	.
.	24ggg#	.
16ccc#JJ)	.	.
.	24bbbJJ)	.
(>16bb~LL	(24bbLL	[f<
.	24fff#	.
16ff#	.	.
.	24ccc#	.
16gg#	24eee	.
.	24ggg#	.
16ccc#JJ)	.	.
.	24bbbJJ)	.
=89	=89	=89
(>16bb~LL	(24bbLL	[f
.	24fff#	.
16ff#	.	.
.	24ccc#	.
16gg#	24eee	.
.	24ggg#	.
16ccc#JJ)	.	.
.	24bbbJJ)	.
(>16bb~LL	(24bbLL	.
.	24fff#	.
16ff#	.	.
.	24ccc#	.
16gg#	24eee	.
.	24ggg#	.
16ccc#JJ)	.	.
.	24bbbJJ)	.
*	*X8va	*
=90	=90	=90
!	!Expression: Lumineux	!
(>2b	(32D#LLL	ff
.	32F#	.
.	32A#	.
.	32B	.
.	32bb	.
.	32ddd#	.
.	32fff#	.
.	32ggg#	.
.	32bbb	.
*	*8va	*
.	32aaaa#) 32bbbbJJJ	.
*	*X8va	*
.	16ryy	.
.	8ryy	.
=91	=91	=91
(>[2b	((32D#LLL	fff
.	32F#	.
.	32A#	.
.	32B	.
.	32bb	.
.	32ddd#	.
.	32fff#	.
.	32ggg#	.
.	32bbbJJJ)	.
*	*8va	*
!Tempo Marking: Tres retenu	!Tempo Marking: Tres retenu	!Tempo Marking: Tres retenu
.	16ffff#~^LL	.
.	16gggg#~^	.
.	16aaaa#~^	.
.	16gggg#~^JJ	.
4ryy	.	.
.	[4ffff#~^)	.
16ryy	.	.
.	32ryy	.
=92	=92	=92
2b;]	2ffff#]	.
*	*X8va	*
==	==	==
*-	*-	*-
!!!system-decoration: {(s1,s2)}
!!!RDF**kern: > = above
!!!RDF**kern: < = below
!!!RDF**kern: i = editorial accidental
!!!RDF**kern: Z = caesura
